X: 613
%
U:~=!turn!
T: Torry Burn
C:
O:Scotland
B:Keith Norman MacDonald : "The Skye collection of the best reels & strathspeys extant" : 1887
Z:Ralph Palmer
R:Reel
M:C|
L:1/8
K:A dorian
D | {/F}G2 T(BG) (Bd)dB | {AB}c2 (ec) efgB | {/F}G2 TBG Bcdg | ed{AB}cB {cB}A2 {/F}G :|
d | {/f}g2 (bg) Taf{gf}ed | {gf}edef {/f}gdBG | {ef}g2 (bg) Taf{ge}ed | {gf}edef {/f}g2 (ga) |
(ba){/f}gf {/f}(gf){gf}ed | {/f}edef {/f}gdBG | {AB}cBcd ef{/f}ge | {/^c}dB{/F}GB {cB}A2 {/F}G |]


